X: 25804
T: Mason's Apron, The
R: reel
M: 4/4
K: Gmajor
"A"~g3d BAGE|DEGA BGAB|cAAG ~A3G|ABcd ~e3f|
gBdG BAGE|DEGA BzAB|cBcd efge|dBBA ~G3z||
"A'"gfgd BAGE|DEGA BzAB|cA~A2 ~A3B|c3d ~e3f|
~g2 gz BAGE|DEGA BzAB|cBcd efge|dz AB ~G3A||
|:"B"BGdB eBdG|BGdB eBdB|BAeA fAeB|BAeA fAec|
BGdB eBdG|BGdB eBdB|c2cd ~e3g|dBAB ~G3z:|
"C"B2dB eBdB-|B2dB eBdB|c2ec gcec-|c2ec gzge|
B2dB eBdB-|B2dB eBdB|cBcd eage|dBcA ~G3z||
"C'"B2dB eBdB-|B2dB eBdB|c2ec gcec-|c2gc fcec|
B2dB eBdB|GBdB eBdB|czcd ~e3g|dzAB ~G3A||
"D"B2gB aBgB-|B2gB aBgB|c2ac bcac-|c2ac bzac|
B2gB aBgB-|B2 az aged|cBcd efge|dBBA ~G3z||
"D'"B2gB aBgB-|B2gB aBgB|c2ac bcac-|c2ac bzac|
B2gB aBgB-|B2 gb aged|cBcd efge|dBAB ~g3z||
|:"E"gded gded|gzfg edeg|ae~e2 aefg|az^ga edef|
gded gded|gzfg edef|1 ~g3e dBGb|~a3b ~g2gz:|2 ~g3e dBGB|~A3B ~G2GA||
"F"BzgB dGBD|GBdG BDGB|cEGc EGcE|GcEG cEGz|
BDGB DGBD|GBDG BDGB|czcd ~e3g|dzAB ~G3A||
"F'" BDGB dG (3Bcd|GBdG Bd[Gg]z|ceGc GceG|ceGc eGcA|
BdGB dGBd|GBdG BdGB|czcd ~e3g|dzAB ~G3A||
"D"B2gB aBgB-|B2gB aBgB|c2ac bcac-|c2ac bzac|
B2gB aBgB-|B2 az aged|cBcd efge|dBBA ~G3z||
"D'"B2gB aBgB-|B2gB aBgB|c2ac bcac-|c2ac bzac|
B2gB aBgB-|B2 gb aged|cBcd efge|dBAB ~g3z||

